static/images/truck.svg

<?xml version="1.0"?>
<svg xmlns="http://www.w3.org/2000/svg" width="512" height="512" viewBox="0 0 512 512"><g><path d="M456,360V260a28.026,28.026,0,0,0-16-25.29V36A28.031,28.031,0,0,0,412,8H100A28.031,28.031,0,0,0,72,36V234.71A28.026,28.026,0,0,0,56,260V360a16.021,16.021,0,0,0-16,16v32a16.021,16.021,0,0,0,16,16v56a24.032,24.032,0,0,0,24,24h32a24.032,24.032,0,0,0,24-24V424H376v56a24.032,24.032,0,0,0,24,24h32a24.032,24.032,0,0,0,24-24V424a16.021,16.021,0,0,0,16-16V376A16.021,16.021,0,0,0,456,360ZM88,36a12.01,12.01,0,0,1,12-12H412a12.01,12.01,0,0,1,12,12V232H400V116a28.031,28.031,0,0,0-28-28H140a28.031,28.031,0,0,0-28,28V232H88Zm272,84H152a8,8,0,0,0-8,8V232H128V116a12.01,12.01,0,0,1,12-12H372a12.01,12.01,0,0,1,12,12V232H368V128A8,8,0,0,0,360,120Zm-26.34,78.34a8.015,8.015,0,0,0-11.32,0L288.69,232H203.31l22.35-22.34a8,8,0,0,0-11.32-11.32L180.69,232H160V136H352v96H311.31l22.35-22.34A8.015,8.015,0,0,0,333.66,198.34ZM72,260a12.01,12.01,0,0,1,12-12H428a12.01,12.01,0,0,1,12,12V360H72Zm48,220a8.011,8.011,0,0,1-8,8H80a8.011,8.011,0,0,1-8-8V424h48Zm320,0a8.011,8.011,0,0,1-8,8H400a8.011,8.011,0,0,1-8-8V424h48Zm16.01-72H56v-8h48a8,8,0,0,0,0-16H56v-8H456v8H408a8,8,0,0,0,0,16h48.01Z"/><path d="M120,280a32,32,0,1,0,32,32A32.036,32.036,0,0,0,120,280Zm0,48a16,16,0,1,1,16-16A16.019,16.019,0,0,1,120,328Z"/><path d="M392,280a32,32,0,1,0,32,32A32.036,32.036,0,0,0,392,280Zm0,48a16,16,0,1,1,16-16A16.019,16.019,0,0,1,392,328Z"/><path d="M240,144H176a8,8,0,0,0,0,16h64a8,8,0,0,0,0-16Z"/><path d="M272,144h-8a8,8,0,0,0,0,16h8a8,8,0,0,0,0-16Z"/><path d="M320,280H192a8,8,0,0,0-8,8v48a8,8,0,0,0,8,8H320a8,8,0,0,0,8-8V288A8,8,0,0,0,320,280Zm-8,48H200V296H312Z"/></g></svg>

<?xml version="1.0" encoding="utf-8"?>
<!-- Generator: Adobe Illustrator 24.3.0, SVG Export Plug-In . SVG Version: 6.00 Build 0)  -->
<svg version="1.1" id="Capa_1" xmlns="http://www.w3.org/2000/svg" xmlns:xlink="http://www.w3.org/1999/xlink" x="0px" y="0px"
	 viewBox="0 0 512 512" style="enable-background:new 0 0 512 512;" xml:space="preserve">
<style type="text/css">
	.st0{fill:#FF2A39;}
</style>
<g>
	<path class="st0" d="M456,360V260c0-10.8-6.2-20.7-16-25.3V36c0-15.5-12.5-28-28-28H100C84.5,8,72,20.5,72,36v198.7
		c-9.8,4.6-16,14.5-16,25.3v100c-8.8,0-16,7.2-16,16v32c0,8.8,7.2,16,16,16v56c0,13.2,10.8,24,24,24h32c13.2,0,24-10.8,24-24v-56
		h240v56c0,13.2,10.8,24,24,24h32c13.2,0,24-10.8,24-24v-56c8.8,0,16-7.2,16-16v-32C472,367.2,464.8,360,456,360z M88,36
		c0-6.6,5.4-12,12-12h312c6.6,0,12,5.4,12,12v196h-24V116c0-15.5-12.5-28-28-28H140c-15.5,0-28,12.5-28,28v116H88V36z M360,120H152
		c-4.4,0-8,3.6-8,8v104h-16V116c0-6.6,5.4-12,12-12h232c6.6,0,12,5.4,12,12v116h-16V128C368,123.6,364.4,120,360,120z M333.7,198.3
		c-3.1-3.1-8.2-3.1-11.3,0L288.7,232h-85.4l22.4-22.3c3.1-3.1,3.1-8.2,0-11.3s-8.2-3.1-11.3,0L180.7,232H160v-96h192v96h-40.7
		l22.4-22.3C336.8,206.5,336.8,201.5,333.7,198.3z M72,260c0-6.6,5.4-12,12-12h344c6.6,0,12,5.4,12,12v100H72V260z M120,480
		c0,4.4-3.6,8-8,8H80c-4.4,0-8-3.6-8-8v-56h48V480z M440,480c0,4.4-3.6,8-8,8h-32c-4.4,0-8-3.6-8-8v-56h48V480z M456,408H56v-8h48
		c4.4,0,8-3.6,8-8s-3.6-8-8-8H56v-8h400v8h-48c-4.4,0-8,3.6-8,8s3.6,8,8,8h48V408z"/>
	<path class="st0" d="M120,280c-17.7,0-32,14.3-32,32s14.3,32,32,32s32-14.3,32-32C152,294.3,137.7,280,120,280z M120,328
		c-8.8,0-16-7.2-16-16s7.2-16,16-16s16,7.2,16,16C136,320.8,128.8,328,120,328z"/>
	<path class="st0" d="M392,280c-17.7,0-32,14.3-32,32s14.3,32,32,32s32-14.3,32-32C424,294.3,409.7,280,392,280z M392,328
		c-8.8,0-16-7.2-16-16s7.2-16,16-16s16,7.2,16,16C408,320.8,400.8,328,392,328z"/>
	<path class="st0" d="M240,144h-64c-4.4,0-8,3.6-8,8s3.6,8,8,8h64c4.4,0,8-3.6,8-8S244.4,144,240,144z"/>
	<path class="st0" d="M272,144h-8c-4.4,0-8,3.6-8,8s3.6,8,8,8h8c4.4,0,8-3.6,8-8S276.4,144,272,144z"/>
	<path class="st0" d="M320,280H192c-4.4,0-8,3.6-8,8v48c0,4.4,3.6,8,8,8h128c4.4,0,8-3.6,8-8v-48C328,283.6,324.4,280,320,280z
		 M312,328H200v-32h112V328z"/>
</g>
</svg>
